X: 17011
T: Health To The Ladies
R: jig
M: 6/8
K: Gmajor
|:g|dBG AGE|GED DEG|AcB AGA|BAA A2 g|
dBG AGE|GED DEG|AcB AGA|BGG G2:|
|:G|Bdd cee|Bdd dBG|Bcd dge|dBG A2 G|
B2 d c2 e|B2 d dBG|AcB A2 A|BGG G2:|

